X:25
T:Eden Quickstep
S:American Veteran Fifer, #25
C:By Col. Le Roy Van Horn, Ex President N.A. of C.W.M.
M:6/8
L:1/8
Q:1/8=300
K:D 
%%MIDI program 72
%%MIDI transpose 8
%%MIDI ratio 3 1
|: D | F2A AFA | d2e f2g | ecA AGF | G2E F2D |
F2A AFA | d2e f2g | ecA ABc | d3 d2 :|
|: f | f2d def | g2e f2d | ecA AGF | G2E F2D |
F2A AFA | d2e f2g | ecA ABc | d3 d2 :|


